packages/icons/plugins/Currency.svg

<svg width="25" height="25" viewBox="0 0 25 25" xmlns="http://www.w3.org/2000/svg">
<g>
        <path
            d="M3.36035 8.49023V17.4902H18.3604V8.49023H3.36035ZM17.6104 10.6176C17.2927 10.505 17.0042 10.3229 16.7658 10.0846C16.5275 9.84633 16.3453 9.55786 16.2326 9.24023H17.6104V10.6176ZM15.4766 16.7402H6.24485C6.11165 16.2266 5.84351 15.7578 5.4682 15.3827C5.09289 15.0075 4.62408 14.7395 4.11035 14.6065V11.3777C4.62431 11.2441 5.09318 10.9754 5.46836 10.5996C5.84354 10.2238 6.11137 9.75443 6.2441 9.24023H15.4755C15.6085 9.75448 15.8765 10.2238 16.2519 10.5996C16.6273 10.9755 17.0963 11.2441 17.6104 11.3777V14.6046C17.0966 14.7381 16.6279 15.0065 16.2527 15.382C15.8776 15.7574 15.6096 16.2264 15.4766 16.7402ZM5.48698 9.24023C5.37399 9.55679 5.19177 9.84414 4.95361 10.0813C4.71546 10.3185 4.42737 10.4995 4.11035 10.6112V9.24023H5.48698ZM4.11035 15.3734C4.42618 15.485 4.71318 15.6656 4.95046 15.902C5.18774 16.1385 5.36936 16.4248 5.4821 16.7402H4.11035V15.3734ZM16.2416 16.7402C16.3532 16.4236 16.5339 16.1357 16.7707 15.8977C17.0075 15.6596 17.2943 15.4773 17.6104 15.364V16.7402H16.2416Z"
            fill="currentColor"
        />
        <path
            d="M14.9854 11.8652C14.687 11.8652 14.4008 11.9838 14.1899 12.1947C13.9789 12.4057 13.8604 12.6919 13.8604 12.9902C13.8604 13.2886 13.9789 13.5748 14.1899 13.7857C14.4008 13.9967 14.687 14.1152 14.9854 14.1152C15.2837 14.1152 15.5699 13.9967 15.7808 13.7857C15.9918 13.5748 16.1104 13.2886 16.1104 12.9902C16.1104 12.6919 15.9918 12.4057 15.7808 12.1947C15.5699 11.9838 15.2837 11.8652 14.9854 11.8652ZM14.9854 13.3652C14.8888 13.3609 14.7976 13.3195 14.7308 13.2497C14.664 13.1798 14.6268 13.0869 14.6268 12.9902C14.6268 12.8936 14.664 12.8007 14.7308 12.7308C14.7976 12.661 14.8888 12.6196 14.9854 12.6152C15.0819 12.6196 15.1731 12.661 15.2399 12.7308C15.3067 12.8007 15.344 12.8936 15.344 12.9902C15.344 13.0869 15.3067 13.1798 15.2399 13.2497C15.1731 13.3195 15.0819 13.3609 14.9854 13.3652ZM10.8604 9.99023C9.6176 9.99023 8.61035 11.3335 8.61035 12.9902C8.61035 14.647 9.6176 15.9902 10.8604 15.9902C12.1031 15.9902 13.1104 14.647 13.1104 12.9902C13.1104 11.3335 12.1031 9.99023 10.8604 9.99023ZM10.8604 15.2402C10.0474 15.2402 9.36035 14.2097 9.36035 12.9902C9.36035 11.7707 10.0474 10.7402 10.8604 10.7402C11.6734 10.7402 12.3604 11.7707 12.3604 12.9902C12.3604 14.2097 11.6734 15.2402 10.8604 15.2402ZM6.73535 11.8652C6.43698 11.8652 6.15083 11.9838 5.93986 12.1947C5.72888 12.4057 5.61035 12.6919 5.61035 12.9902C5.61035 13.2886 5.72888 13.5748 5.93986 13.7857C6.15083 13.9967 6.43698 14.1152 6.73535 14.1152C7.03372 14.1152 7.31987 13.9967 7.53085 13.7857C7.74183 13.5748 7.86035 13.2886 7.86035 12.9902C7.86035 12.6919 7.74183 12.4057 7.53085 12.1947C7.31987 11.9838 7.03372 11.8652 6.73535 11.8652ZM6.73535 13.3652C6.6388 13.3609 6.54763 13.3195 6.48083 13.2497C6.41403 13.1798 6.37675 13.0869 6.37675 12.9902C6.37675 12.8936 6.41403 12.8007 6.48083 12.7308C6.54763 12.661 6.6388 12.6196 6.73535 12.6152C6.83191 12.6196 6.92307 12.661 6.98987 12.7308C7.05667 12.8007 7.09395 12.8936 7.09395 12.9902C7.09395 13.0869 7.05667 13.1798 6.98987 13.2497C6.92307 13.3195 6.83191 13.3609 6.73535 13.3652Z"
            fill="currentColor"
        />
        <rect x="5.28027" y="6.48047" width="0.72" height="1.56" fill="currentColor" />
        <rect
            x="20.04"
            y="6.48047"
            width="0.72"
            height="14.04"
            transform="rotate(90 20.04 6.48047)"
            fill="currentColor"
        />
        <rect
            x="20.04"
            y="14.7607"
            width="0.719986"
            height="0.959999"
            transform="rotate(90 20.04 14.7607)"
            fill="#111418"
        />
        <rect
            x="20.22"
            y="6.66047"
            width="0.360001"
            height="8.64"
            fill="currentColor"
            stroke="black"
            stroke-width="0.360001"
        />
    </g>
</svg>

<svg xmlns="http://www.w3.org/2000/svg" viewBox="0 0 25 25">
    <path fill="currentColor" d="M3.36 8.49v9h15v-9h-15Zm14.25 2.128a2.265 2.265 0 0 1-1.377-1.378h1.377v1.378Zm-2.133 6.122H6.245a2.975 2.975 0 0 0-2.135-2.133v-3.23A2.978 2.978 0 0 0 6.244 9.24h9.232a2.979 2.979 0 0 0 2.134 2.138v3.227a2.978 2.978 0 0 0-2.133 2.135Zm-9.99-7.5a2.258 2.258 0 0 1-1.377 1.371v-1.37h1.377ZM4.11 15.373a2.255 2.255 0 0 1 1.372 1.367H4.11v-1.367Zm12.132 1.367a2.26 2.26 0 0 1 1.368-1.376v1.376h-1.368Z"/>
    <path fill="currentColor" d="M14.985 11.865a1.125 1.125 0 1 0 0 2.25 1.125 1.125 0 0 0 0-2.25Zm0 1.5a.376.376 0 0 1 0-.75.376.376 0 0 1 0 .75ZM10.86 9.99c-1.242 0-2.25 1.344-2.25 3 0 1.657 1.008 3 2.25 3 1.243 0 2.25-1.343 2.25-3 0-1.656-1.007-3-2.25-3Zm0 5.25c-.813 0-1.5-1.03-1.5-2.25s.687-2.25 1.5-2.25 1.5 1.03 1.5 2.25-.687 2.25-1.5 2.25Zm-4.125-3.375a1.125 1.125 0 1 0 0 2.25 1.125 1.125 0 0 0 0-2.25Zm0 1.5a.375.375 0 0 1 0-.75.376.376 0 0 1 0 .75ZM5.28 6.48H6v1.56h-.72zm14.76 0v.72H6v-.72z"/>
    <path fill="#111418" d="M20.04 14.76v.72h-.96v-.72z"/>
    <path fill="currentColor" stroke="#000" stroke-width=".36" d="M20.22 6.66h.36v8.64h-.36z"/>
</svg>
